img/services/duties/01.svg

<svg width="75" height="75" viewBox="0 0 75 75" fill="none" xmlns="http://www.w3.org/2000/svg">
<path d="M7 5C6.448 5 6 5.447 6 6V68C6 68.553 6.448 69 7 69H69C69.553 69 70 68.553 70 68V6C70 5.447 69.553 5 69 5H7ZM8 7H68V67H8V7ZM13.5 19C13.224 19 13 19.224 13 19.5V24.5C13 24.776 13.224 25 13.5 25H62.5C62.776 25 63 24.776 63 24.5V19.5C63 19.224 62.776 19 62.5 19H58.5C58.224 19 58 19.224 58 19.5C58 19.776 58.224 20 58.5 20H62V24H14V20H49.5C49.776 20 50 19.776 50 19.5C50 19.224 49.776 19 49.5 19H13.5ZM51.5 19C51.224 19 51 19.224 51 19.5C51 19.776 51.224 20 51.5 20H55.5C55.776 20 56 19.776 56 19.5C56 19.224 55.776 19 55.5 19H51.5ZM13.5 29C13.224 29 13 29.224 13 29.5V34.5C13 34.776 13.224 35 13.5 35H57.5C57.776 35 58 34.776 58 34.5V29.5C58 29.224 57.776 29 57.5 29H25.5C25.224 29 25 29.224 25 29.5C25 29.776 25.224 30 25.5 30H57V34H14V30H20.5C20.776 30 21 29.776 21 29.5C21 29.224 20.776 29 20.5 29H13.5ZM13.5 39C13.224 39 13 39.224 13 39.5V44.5C13 44.776 13.224 45 13.5 45H37.5C37.776 45 38 44.776 38 44.5C38 44.224 37.776 44 37.5 44H14V40H51V44H45.5C45.224 44 45 44.224 45 44.5C45 44.776 45.224 45 45.5 45H51.5C51.776 45 52 44.776 52 44.5V39.5C52 39.224 51.776 39 51.5 39H13.5ZM39.5 44C39.224 44 39 44.224 39 44.5C39 44.776 39.224 45 39.5 45H42.5C42.776 45 43 44.776 43 44.5C43 44.224 42.776 44 42.5 44H39.5ZM13.5 49C13.224 49 13 49.224 13 49.5V54.5C13 54.776 13.224 55 13.5 55H21.5C21.776 55 22 54.776 22 54.5C22 54.224 21.776 54 21.5 54H14V50H60V54H27.5C27.224 54 27 54.224 27 54.5C27 54.776 27.224 55 27.5 55H60.5C60.776 55 61 54.776 61 54.5V49.5C61 49.224 60.776 49 60.5 49H13.5Z" fill="#E4B564"/>
</svg>

<svg width="75" height="75" fill="none" xmlns="http://www.w3.org/2000/svg"><path d="M7 5a1 1 0 00-1 1v62a1 1 0 001 1h62a1 1 0 001-1V6a1 1 0 00-1-1H7zm1 2h60v60H8V7zm5.5 12a.5.5 0 00-.5.5v5a.5.5 0 00.5.5h49a.5.5 0 00.5-.5v-5a.5.5 0 00-.5-.5h-4a.5.5 0 000 1H62v4H14v-4h35.5a.5.5 0 000-1h-36zm38 0a.5.5 0 000 1h4a.5.5 0 000-1h-4zm-38 10a.5.5 0 00-.5.5v5a.5.5 0 00.5.5h44a.5.5 0 00.5-.5v-5a.5.5 0 00-.5-.5h-32a.5.5 0 000 1H57v4H14v-4h6.5a.5.5 0 000-1h-7zm0 10a.5.5 0 00-.5.5v5a.5.5 0 00.5.5h24a.5.5 0 000-1H14v-4h37v4h-5.5a.5.5 0 000 1h6a.5.5 0 00.5-.5v-5a.5.5 0 00-.5-.5h-38zm26 5a.5.5 0 000 1h3a.5.5 0 000-1h-3zm-26 5a.5.5 0 00-.5.5v5a.5.5 0 00.5.5h8a.5.5 0 000-1H14v-4h46v4H27.5a.5.5 0 000 1h33a.5.5 0 00.5-.5v-5a.5.5 0 00-.5-.5h-47z" fill="#E4B564"/></svg>
